!!!COM: Palestrina, Giovanni Perluigi da
!!!OPR: Missa Gabriel Archangelus
!!!OMD: Sanctus
!!!OTL: Hosanna
**kern	**kern	**kern	**kern
*Ibass	*Itenor	*Icalto	*Icant
!Bassus	!Tenor	!Altus	!Cantus
*clefF4	*clefGv2	*clefG2	*clefG2
*k[b-]	*k[b-]	*k[b-]	*k[b-]
*D:aeo	*D:aeo	*D:aeo	*D:aeo
*M4/2	*M4/2	*M4/2	*M4/2
=82	=82	=82	=82
0r	0r	2.d	[0dd
.	.	4e	.
.	.	2f	.
.	.	[2g	.
=83	=83	=83	=83
0r	1r	2g]	1dd]
.	.	2f	.
.	2.G	[1b-	1dd
.	4A	.	.
=84	=84	=84	=84
0r	2B-	2b-]	1g
.	1c	2g	.
.	.	2a	[1dd
.	2B-	2b-	.
=85	=85	=85	=85
0r	2e-	2.g	2dd]
.	2e-	.	2cc
.	.	4a	.
.	1d	2b-	2.dd
.	.	[2a	.
.	.	.	4cc
=86	=86	=86	=86
[0d	1G	4a]	4b-
.	.	4g	4a
.	.	1g	1b-
.	1r	.	.
.	.	2f	[2a
=87	=87	=87	=87
1d]	1r	1b-	4a]
.	.	.	4g
.	.	.	1g
1d	2r	1a	.
.	2d	.	2f
=88	=88	=88	=88
1G	2d	1g	1b-
.	2e	.	.
[1d	[1f	1r	2a
.	.	.	2dd
=89	=89	=89	=89
2d]	2f]	1a	2dd
2c#	2e	.	2ee
2.d	2d	2a	2.ff
.	[2f	2d	.
4c	.	.	4ee
=90	=90	=90	=90
1B-	2f]	2f	1.dd
.	4e	2g	.
.	4d	.	.
1A	2f	1a	.
.	2e	.	2cc
=91	=91	=91	=91
1D	2.d	1f	2b-
.	.	.	1a
.	4c	.	.
1r	1B-	2.d	.
.	.	.	2g
.	.	4e	.
=92	=92	=92	=92
2.D	1A	1f	2.a
4E	.	.	4g
2F	2r	1d	2a
[2G	[2d	.	2b-
=93	=93	=93	=93
2G]	2d]	1r	1a
2F	2.f	.	.
[1B-	.	2.d	[1dd
.	4e	.	.
.	4d	.	.
.	4c	4e	.
=94	=94	=94	=94
1B-]	1d	2f	1dd]
.	.	1g	.
1A	1c	.	1r
.	.	2f	.
=95	=95	=95	=95
1G	2d	2b-	0r
.	2e	2b-	.
[1F	2.f	2.a	.
.	4e	4g	.
=96	=96	=96	=96
1F]	2d	1.f	2.a
.	4c	.	.
.	4B-	.	4b-
1r	2A	.	2cc
.	2B-	4e	[2dd
.	.	4d	.
=97	=97	=97	=97
0r	1A	2f	2dd]
.	.	2e	2cc
.	1d	4d	2ff
.	.	4e	.
.	.	4f	2ff
.	.	4g	.
=98	=98	=98	=98
2.A	2.c	1a	1ee
4B-	4d	.	.
2c	2e	1r	[1a
[2d	[2f	.	.
=99	=99	=99	=99
2d]	2f]	1r	1a]
2c	2e	.	.
2.f	2.a	2.d	2r
.	.	.	[2a
4e	4g	4e	.
=100	=100	=100	=100
2d	2f	2f	4a]
.	.	.	4b-
2c	2e	1g	2cc
2.B-	1d	.	[1dd
.	.	2f	.
4A	.	.	.
=101	=101	=101	=101
2G	1r	2b-	2dd]
2A	.	2a	2cc
2.F	2.A	1a	1ff
4G	4B-	.	.
=102	=102	=102	=102
2A	2c	1a	2ee
2D	1d	.	2dd
1A	.	1r	1ee
.	2c	.	.
=103	=103	=103	=103
0r	2.f	2.d	2dd
.	.	.	2.ff
.	4e	4e	.
.	2d	2f	.
.	.	.	4ee
.	2G	[2g	4dd
.	.	.	4cc
=104	=104	=104	=104
0r	1d	2g]	2b-
.	.	2f	2a
.	1G	2b-	1g
.	.	2b-	.
=105	=105	=105	=105
2.D	1d	1a	2f
.	.	.	2.ff
4E	.	.	.
2F	1r	[1d	.
.	.	.	4ee
[2G	.	.	4dd
.	.	.	4cc
=106	=106	=106	=106
2G]	1r	1d]	2b-
2F	.	.	2a
2.B-	2.G	2r	1g
.	.	[2b-	.
4A	4A	.	.
=107	=107	=107	=107
2G	2B-	4b-]	0g
.	.	4a	.
2C	1c	4g	.
.	.	4f	.
1G	.	2e-	.
.	2B-	2d	.
=108	=108	=108	=108
1C	2e-	2c	2.g
.	2e-	2.G	.
.	.	.	4a
1G	1d	.	4b-
.	.	4A	4cc
.	.	4B-	[2dd
.	.	4c	.
=109	=109	=109	=109
1r	1G	2d	2dd]
.	.	2e	4cc
.	.	.	4b-
2r	1r	2f	2a
2c	.	[2a	2cc
=110	=110	=110	=110
2d	0r	2a]	1b-
2e	.	2g	.
2.f	.	[1a	2a
.	.	.	2cc
4e	.	.	.
=111	=111	=111	=111
2d	1r	0a]	2dd
4c	.	.	2ee
4B-	.	.	.
2A	2r	.	2ff
2c	2e	.	2ee
=112	=112	=112	=112
1B-	2f	2r	1dd
.	2g	2d	.
[1A	2.a	2f	[1cc
.	.	2e	.
.	4g	.	.
=113	=113	=113	=113
1A]	2f	2.a	1cc]
.	4e	.	.
.	4d	8g	.
.	.	8f	.
2r	2c	2e	2r
2E	2e	2g	2g
=114	=114	=114	=114
2F	1d	2f	2a
2G	.	2d	2b
2.A	[1c	2r	[1cc
.	.	2e	.
4G	.	.	.
=115	=115	=115	=115
2F	1c]	2f	0cc]
4E	.	2g	.
4D	.	.	.
2C	2r	2a	.
2E	2G	[2g	.
=116	=116	=116	=116
1D	2A	4g]	1r
.	.	4f	.
.	2B	1f	.
1C	2.c	.	1g
.	.	2e	.
.	4B-	.	.
=117	=117	=117	=117
1r	2A	2f	2a
.	2G	2g	2b
2r	1F	1a	2cc
2A	.	.	2cc
=118	=118	=118	=118
2B-	0r	1g	2dd
2c	.	.	2ee
2.d	.	[1f	2.ff
4c	.	.	4ee
=119	=119	=119	=119
2B-	1r	0f]	2dd
4A	.	.	4cc
4G	.	.	4b-
2F	1c	.	2a
2A	.	.	2cc
=120	=120	=120	=120
1G	2d	1r	1b-
.	2e	.	.
1F	2.f	2r	2a
.	.	2f	2cc
.	4e	.	.
=121	=121	=121	=121
0r	2d	2f	2dd
.	4c	2g	2ee
.	4B-	.	.
.	2A	[1a	2ff
.	2c	.	[2ee
=122	=122	=122	=122
2r	2d	2a]	4ee]
.	.	.	4dd
2F	2f	2a	1dd
2G	1e	2b-	.
2A	.	2a	2cc#
=123	=123	=123	=123
2.B-	[0d	2r	1dd
.	.	2f	.
4A	.	.	.
2G	.	2g	2r
2d	.	2a	2f
=124	=124	=124	=124
2G	1d_	2b-	2g
2F#	.	2a	2a
[1G	1d_	2g	2b-
.	.	[2b-	2g
=125	=125	=125	=125
0G]	0d]	4b-]	0b-
.	.	4a	.
.	.	4g	.
.	.	4f#	.
.	.	1g	.
=126	=126	=126	=126
[0D	[0d	[0f#	[0a
=127	=127	=127	=127
0D]	0d]	0f#]	0a]
==	==	==	==
*-	*-	*-	*-
!!!CDT: 1525/^1526/-1594/2/2
!!!OCY: Italia
!!!AGN: Mass (Parody)
!!!AST: renaissance, vocal
!!!ASW: Motet 1532 (Verdelot)
!!!PWK: Masses, Book I
!!!RNB: Cadence finals: A,F
!!!YOR: Le Opere Complete, v. 1, p. 93
!!!YOO: Rome, Italy: Fratelli Scalera
!!!END: 1992//
!!!EED: John Miller
!!!YEC: Copyright 2000, John Miller
!!!YEN: United States of America
!!!YEM: Rights to all derivative electronic formats reserved.
!!!YEM: Refer to licensing agreement for further details.
!!!YEM: This file must be accompanied by the licensing agreement.
!!!YEM: A copy of the licensing agreement may be found at http://www.music-cog.ohio-state.edu/HumdrumDatabases/Palestrina/license.txt
!!!EMD: converted to Humdrum by Bret Aarden
